build/img/icons/button-arrow-black.svg

<svg width="22" height="22" viewBox="0 0 22 22" fill="none" xmlns="http://www.w3.org/2000/svg">
<g clip-path="url(#clip0)">
<path d="M0.859418 11.8594L19.0592 11.8594L16.0443 14.8596C15.7079 15.1944 15.7066 15.7386 16.0414 16.075C16.3763 16.4114 16.9204 16.4126 17.2568 16.0779L21.7472 11.6091C21.7475 11.6089 21.7477 11.6086 21.748 11.6083C22.0835 11.2735 22.0846 10.7276 21.7481 10.3917C21.7478 10.3914 21.7476 10.3911 21.7473 10.3909L17.2569 5.92213C16.9205 5.5874 16.3764 5.58856 16.0415 5.92505C15.7067 6.26145 15.708 6.80557 16.0444 7.14038L19.0592 10.1406L0.859418 10.1406C0.384784 10.1406 4.33617e-05 10.5254 4.34032e-05 11C4.34447e-05 11.4746 0.384784 11.8594 0.859418 11.8594Z" fill="#201D54"/>
</g>
<defs>
<clipPath id="clip0">
<rect width="22" height="22" fill="white" transform="translate(22 22) rotate(180)"/>
</clipPath>
</defs>
</svg>

<svg width="22" height="22" fill="none" xmlns="http://www.w3.org/2000/svg"><g clip-path="url(#clip0)"><path d="M.86 11.86h18.2l-3.016 3a.86.86 0 001.213 1.218l4.49-4.469h.001a.86.86 0 000-1.217v-.001l-4.491-4.469a.86.86 0 00-1.213 1.218l3.015 3H.86a.86.86 0 000 1.72z" fill="#201D54"/></g><defs><clipPath id="clip0"><path fill="#fff" transform="rotate(180 11 11)" d="M0 0h22v22H0z"/></clipPath></defs></svg>
